src/frontend_kids/assets/images/dc.svg

<svg width="59" height="62" viewBox="0 0 59 62" fill="none" xmlns="http://www.w3.org/2000/svg">
<path d="M13.9849 62V14.3672H27.4307C31.5746 14.3672 35.2387 15.2832 38.4229 17.1152C41.6072 18.9473 44.0608 21.5535 45.7838 24.9341C47.5285 28.3146 48.4118 32.1968 48.4337 36.5806V39.623C48.4337 44.1159 47.5613 48.0526 45.8165 51.4331C44.0935 54.8136 41.6181 57.409 38.3902 59.2192C35.1841 61.0295 31.4437 61.9564 27.169 62H13.9849ZM20.2662 19.5361V56.8638H26.8746C31.7164 56.8638 35.4786 55.3589 38.1612 52.3491C40.8656 49.3394 42.2178 45.0537 42.2178 39.4922V36.7114C42.2178 31.3026 40.942 27.1042 38.3902 24.1162C35.8602 21.1064 32.2616 19.5798 27.5943 19.5361H20.2662Z" fill="#0B334D"/>
<path d="M27.9609 49.1289C26.6589 50.2487 25.2005 51.1081 23.5859 51.707C21.9714 52.306 20.2982 52.6055 18.5664 52.6055C17.2383 52.6055 15.9557 52.4297 14.7188 52.0781C13.4948 51.7396 12.3424 51.2578 11.2617 50.6328C10.194 49.9948 9.21745 49.2331 8.33203 48.3477C7.44661 47.4622 6.6849 46.4857 6.04688 45.418C5.42188 44.3372 4.93359 43.1849 4.58203 41.9609C4.24349 40.724 4.07422 39.4414 4.07422 38.1133C4.07422 36.7852 4.24349 35.5026 4.58203 34.2656C4.93359 33.0286 5.42188 31.8763 6.04688 30.8086C6.6849 29.7279 7.44661 28.7448 8.33203 27.8594C9.21745 26.974 10.194 26.2188 11.2617 25.5938C12.3424 24.9557 13.4948 24.4674 14.7188 24.1289C15.9557 23.7773 17.2383 23.6016 18.5664 23.6016C20.2982 23.6016 21.9714 23.901 23.5859 24.5C25.2005 25.0859 26.6589 25.9453 27.9609 27.0781L24.9922 31.9609C24.1719 31.0755 23.2018 30.3984 22.082 29.9297C20.9622 29.4479 19.7904 29.207 18.5664 29.207C17.3294 29.207 16.1706 29.4414 15.0898 29.9102C14.0091 30.3789 13.0651 31.0169 12.2578 31.8242C11.4505 32.6185 10.8125 33.5625 10.3438 34.6562C9.875 35.737 9.64062 36.8893 9.64062 38.1133C9.64062 39.3372 9.875 40.4896 10.3438 41.5703C10.8125 42.638 11.4505 43.5755 12.2578 44.3828C13.0651 45.1901 14.0091 45.8281 15.0898 46.2969C16.1706 46.7656 17.3294 47 18.5664 47C19.7904 47 20.9622 46.7656 22.082 46.2969C23.2018 45.8151 24.1719 45.1315 24.9922 44.2461L27.9609 49.1289Z" fill="#0B334D"/>
</svg>

<svg width="59" height="62" fill="none" xmlns="http://www.w3.org/2000/svg"><path d="M13.985 62V14.367H27.43c4.144 0 7.808.916 10.992 2.748 3.184 1.832 5.638 4.439 7.36 7.82 1.745 3.38 2.629 7.262 2.65 11.646v3.042c0 4.493-.872 8.43-2.617 11.81-1.723 3.38-4.198 5.976-7.426 7.786-3.206 1.81-6.946 2.737-11.221 2.781H13.985zm6.281-42.464v37.328h6.609c4.841 0 8.604-1.505 11.286-4.515 2.705-3.01 4.057-7.295 4.057-12.857v-2.78c0-5.41-1.276-9.608-3.828-12.596-2.53-3.01-6.128-4.536-10.796-4.58h-7.328z" fill="#0B334D"/><path d="M27.96 49.129a14.264 14.264 0 0 1-4.374 2.578 14.317 14.317 0 0 1-5.02.898c-1.328 0-2.61-.175-3.847-.527a14.703 14.703 0 0 1-3.457-1.445 15.037 15.037 0 0 1-2.93-2.285 15.04 15.04 0 0 1-2.285-2.93 15.332 15.332 0 0 1-1.465-3.457 14.51 14.51 0 0 1-.508-3.848c0-1.328.17-2.61.508-3.847.352-1.237.84-2.39 1.465-3.457a14.78 14.78 0 0 1 2.285-2.95 14.46 14.46 0 0 1 2.93-2.265 14.226 14.226 0 0 1 3.457-1.465 14.003 14.003 0 0 1 3.847-.527c1.732 0 3.405.299 5.02.898a13.765 13.765 0 0 1 4.375 2.578l-2.969 4.883a8.278 8.278 0 0 0-2.91-2.031 8.804 8.804 0 0 0-3.516-.723 8.641 8.641 0 0 0-3.476.703 9.062 9.062 0 0 0-2.832 1.914 8.772 8.772 0 0 0-1.914 2.832 8.593 8.593 0 0 0-.703 3.457c0 1.224.234 2.377.703 3.457a9.127 9.127 0 0 0 1.914 2.813 9.064 9.064 0 0 0 2.832 1.914c1.08.469 2.24.703 3.476.703a9.016 9.016 0 0 0 3.516-.703 8.503 8.503 0 0 0 2.91-2.05l2.969 4.882z" fill="#0B334D"/></svg>
